X: 12322
T: Fairyland, The
R: waltz
M: 3/4
K: Gmajor
P: Trio = 8 bars
d2|:D3 E D2|B4 GA|B4 ^G2|A6|c4 E2|F3 E FA|1 G3 F GE|D6:|2 G3 B d2|G4||
P: Trio = 16 bars
d2|:D3 E D2|B2 G2 A2|B4 ^G2|A6|c4 E2|F3 E FA|G3 F GE|D4 B,C|
D3 E D2|B3 B B2|B4 ^G2|A4 B2|c4 E2|F4 A2|1 G2 F2 E2|D6:|2 G2 B2 d2|G4||

